X: 27
T: Kyrie De beata virgine
N: Derived from Ort1007-Kyrie_De_beata_virgine.krn
C: Marbrianus de Orto
%%abc-version 2.0
%%abcx-abcm2ps-target-version 5.9.1 (29 Sep 2008)
%%abc-creator hum2abc beta
%%abcx-conversion-date 2019/02/17 07:28:37
%%abc-edited-by Jesse Rodin
%%abc-edited-by Jesse Rodin 2003/2013
%%abcx-initial-encoding-date 2013/05/06/
%%humdrum-veritas 1158324093
%%humdrum-veritas-data 2815705880
%%linebreak <none>
%%barnumbers 0
L: 1/4
M: 3/1
Q: 1/2=120
%%staves [1 2 3 4]
V: 1 clef=treble
V: 2 clef=treble-8
V: 3 clef=treble-8
V: 4 clef=bass
K: C
[V:1] z12 | 
[V:2] D3EFGA3Bcd | 
[V:3] D8F4 | 
[V:4] z12 | 
[V:1] z12 | 
[V:2] e2f3ed4c2 | 
[V:3] G2A3GF2E4 | 
[V:4] z12 | 
[V:1] z12 | 
[V:2] d2A2BAGFE4 | 
[V:3] D2F3ED2C4 | 
[V:4] z12 | 
[V:1] z12 | 
[V:2] F2E2F2G2E2A2- | 
[V:3] D2C2D2E2C4 | 
[V:4] z12 | 
[V:1] z12 | 
[V:2] A2B3Gd4c2 | 
[V:3] F2G3FEDE4 | 
[V:4] z12 | 
[V:1] D4F4G4 | 
[V:2] B2G2A2d4c2- | 
[V:3] G4F2D2E4 | 
[V:4] z12 | 
[V:1] A4z4A4 | 
[V:2] cBA2G2E2F4 | 
[V:3] z4e4d4 | 
[V:4] A,,4C,4D,4 | 
[V:1] G3FE2D4^C2 | 
[V:2] E4C2G4E2 | 
[V:3] B2c4d2^G4 | 
[V:4] E,4z4E,4 | 
[V:1] D4z4z4 | 
[V:2] F2A2B2c3Ad2- | 
[V:3] A4D2E2F2G2 | 
[V:4] D,3C,B,,2A,,4G,,2 | 
[V:1] z4F4D4 | 
[V:2] d2^c2d4B4 | 
[V:3] E4D4G4 | 
[V:4] A,,4z4z4 | 
[V:1] C3DE4C4 | 
[V:2] A2c3Acde2dc | 
[V:3] A4G2G4^F2 | 
[V:4] z4C,4A,,4 | 
[V:1] D4z4z4 | 
[V:2] B2G3FD4G2 | 
[V:3] G4d6B2 | 
[V:4] G,,3A,,B,,4G,,4 | 
[V:1] C4D2F2E3F | 
[V:2] E2A2B2d2c4 | 
[V:3] e4d4A4 | 
[V:4] A,,4z4z4 | 
[V:1] G4C4D4 | 
[V:2] d4z4z4 | 
[V:3] B4A2G3FDE | 
[V:4] G,,4A,,2C,2B,,3C, | 
[V:1] z2F2GFD4^C2 | 
[V:2] d6c2A4- | 
[V:3] FGA2BAGFE4 | 
[V:4] D,4G,,4A,,4 | 
[V:1] D12 ||  
[V:2] A12 ||  
[V:3] D12 ||  
[V:4] D,12 ||  
[V:1]  [K:C] [K:clef=treble][M:2/1]z8 | 
[V:2]  [K:C] [K:clef=treble-8][M:2/1]A4c3B | 
[V:3]  [K:C] [K:clef=treble-8][M:2/1]A8- | 
[V:4]  [K:C] [K:clef=bass][M:2/1]z8 | 
[V:1] z8 | 
[V:2] AGF2c3d | 
[V:3] A8- | 
[V:4] z8 | 
[V:1] z8 | 
[V:2] efe2d4 | 
[V:3] A8- | 
[V:4] A,,4D,3E, | 
[V:1] z8 | 
[V:2] c4z2F2- | 
[V:3] A8 | 
[V:4] F,3E,D,C,D,2- | 
[V:1] z8 | 
[V:2] FGABc4 | 
[V:3] A8 | 
[V:4] D,2C,B,,A,,4 | 
[V:1] z8 | 
[V:2] d2e4dc | 
[V:3] G8 | 
[V:4] B,,2C,4B,,A,, | 
[V:1] z8 | 
[V:2] d4G3A | 
[V:3] _B6A2 | 
[V:4] G,,4G,,4 | 
[V:1] z8 | 
[V:2] _Bcd4c2 | 
[V:3] G4F4 | 
[V:4] z2_B,,4A,,2 | 
[V:1] z8 | 
[V:2] _B2A2G2c2 | 
[V:3] G2c3_BAG | 
[V:4] G,,2F,,2C,4 | 
[V:1] z8 | 
[V:2] F2E4D2 | 
[V:3] _B2A4G2 | 
[V:4] D,2A,,2_B,,4 | 
[V:1] z8 | 
[V:2] E2F3GAB | 
[V:3] A8 | 
[V:4] A,,4z4 | 
[V:1] z8 | 
[V:2] c2F2c3d | 
[V:3] z8 | 
[V:4] A,4A,2A,2- | 
[V:1] z8 | 
[V:2] efe3dcB | 
[V:3] z8 | 
[V:4] A,2G,2A,2G,2 | 
[V:1] z8 | 
[V:2] A2d4^c2 | 
[V:3] z8 | 
[V:4] A,2F,2E,4 | 
[V:1] A8- | 
[V:2] d4f4 | 
[V:3] z4A4 | 
[V:4] D,8 | 
[V:1] A8- | 
[V:2] e8 | 
[V:3] c8 | 
[V:4] A,,8 | 
[V:1] A8- | 
[V:2] f8 | 
[V:3] d4c4 | 
[V:4] D,4F,4- | 
[V:1] A8 | 
[V:2] z4z2f2- | 
[V:3] d4z2D2- | 
[V:4] F,2E,2D,4 | 
[V:1] A8 | 
[V:2] fedcd4 | 
[V:3] D2E2F4 | 
[V:4] z8 | 
[V:1] G8 | 
[V:2] e8 | 
[V:3] E6F2 | 
[V:4] C,8 | 
[V:1] _B6A2 | 
[V:2] d8 | 
[V:3] G6A2 | 
[V:4] G,,4G,4 | 
[V:1] G4^F4 | 
[V:2] G4A3B | 
[V:3] B2c2d4 | 
[V:4] E,4D,4 | 
[V:1] G2c3BAG | 
[V:2] cdefg4 | 
[V:3] e4z2e2 | 
[V:4] C,8 | 
[V:1] B2A4^G2 | 
[V:2] f4e4- | 
[V:3] d3cB4 | 
[V:4] D,4E,4 | 
[V:1] A8 ||  
[V:2] e8 ||  
[V:3] A8 ||  
[V:4] A,,8 ||  
[V:1]  [K:C] [K:clef=treble][M:3/1]z12 | 
[V:2]  [K:C] [K:clef=treble-8][M:3/1]A4c4d4 | 
[V:3]  [K:C] [K:clef=treble-8][M:3/1]z12 | 
[V:4]  [K:C] [K:clef=bass][M:3/1]z12 | 
[V:1] z12 | 
[V:2] c3BA2G2A4 | 
[V:3] A3Bc2d4c2 | 
[V:4] z12 | 
[V:1] A3Bc2d4^c2 | 
[V:2] f4e2d2e4 | 
[V:3] d3cA2B2A4 | 
[V:4] z12 | 
[V:1] d3cA2B2A4 | 
[V:2] d4d3efedc | 
[V:3] D4z4z4 | 
[V:4] D,3E,F,2G,4^F,2 | 
[V:1] D4z4z4 | 
[V:2] B2G4^F2G4 | 
[V:3] G4A4B4- | 
[V:4] G,4D,4G,,4 | 
[V:1] G4A4_B4- | 
[V:2] d3ef2c2d2_B2- | 
[V:3] B4A4z2G2- | 
[V:4] z2G,2F,4D,2_E,2- | 
[V:1] B4A4z2G2- | 
[V:2] Bcd6G2c2- | 
[V:3] GFD2F4E4 | 
[V:4] E,D,_B,,C,D,4C,4- | 
[V:1] GFD2F4E4 | 
[V:2] c2d4d2c4- | 
[V:3] z4D4A4- | 
[V:4] C,2_B,,3C,D,2A,,4 | 
[V:1] z4D4A4- | 
[V:2] c4d3ef2FG | 
[V:3] A4B4c2d2- | 
[V:4] z2A,2G,4F,2D,2 | 
[V:1] A4B4c2d2- | 
[V:2] ABcde4c2G2 | 
[V:3] dcA4G2A2G2 | 
[V:4] F,4E,4z4 | 
[V:1] dcA4G2A2G2 | 
[V:2] A4B4A2c2- | 
[V:3] F4E4z4 | 
[V:4] z4z2E,2F,2C,2 | 
[V:1] F4E4z4 | 
[V:2] c2B2c4z2c2- | 
[V:3] z4A4G4 | 
[V:4] D,4A,,4C,4 | 
[V:1] z4A4G4 | 
[V:2] cde4d2e4 | 
[V:3] F2E2F4E4 | 
[V:4] z4z4C,4 | 
[V:1] F2E2F4E4 | 
[V:2] A2c2F4G4 | 
[V:3] z2A4B2c3B | 
[V:4] D,2C,2D,4C,4 | 
[V:1] z2A4B2c3B | 
[V:2] F2D2d4e4 | 
[V:3] AGF4G2A4 | 
[V:4] D,6B,,2A,,4 | 
[V:1] AGF4G2A4 | 
[V:2] f2d3cB2A4 | 
[V:3] z4D2E2F4 | 
[V:4] D,4z4D,4 | 
[V:1] z4D2E2F4 | 
[V:2] c4B3cd4 | 
[V:3] E2C2G3F/E/D4 | 
[V:4] C,2A,,2G,,2G,2A,2F,2 | 
[V:1] E2C2G3F/E/D4 | 
[V:2] A4z4A2B2 | 
[V:3] z4E4F2G2 | 
[V:4] C3B,/A,/G,4z4 | 
[V:1] z4E4F2G2 | 
[V:2] c8A2c2- | 
[V:3] A4z2A3GE2 | 
[V:4] F,4C,4D,2C,2 | 
[V:1] A4z2A3GE2 | 
[V:2] c2c4A6- | 
[V:3] F3EC2D4C2 | 
[V:4] F,,3G,,A,,2F,,2A,,4 | 
[V:1] F3EC2D4^C2 | 
[V:2] A2F2E2D2E4 | 
[V:3] D4F2G2A4- | 
[V:4] z2D,2A,,2B,,2A,,4 | 
[V:1] D12 |]  
[V:2] D8A4 |]  
[V:3] A4D8 |]  
[V:4] D,12 |]  



